icon/lg/pytorch.svg

<?xml version="1.0" encoding="UTF-8"?>
<svg viewBox="0 0 512 127" version="1.1" xmlns="http://www.w3.org/2000/svg" preserveAspectRatio="xMidYMid" height="1em" width="1em">
  <g>
    <path d="M38.4551611,1.68109994 L38.4551611,15.2349682 L17.6297371,36.0596216 C6.73055846,47.1139467 6.73167062,64.8961735 17.6330736,76.1510034 L17.9667556,76.4900472 C29.1040427,87.8374718 47.3860045,87.8374718 58.7334291,76.4900472 C69.9673794,65.464133 70.0797189,47.435723 59.0704476,36.0658627 L58.7334291,35.7233737 L65.6679663,28.7888364 C80.7978658,43.9187359 80.7978658,68.1896163 65.6679663,83.4245844 C50.8532731,98.5544839 26.477324,98.5544839 11.3474246,83.4245844 C-3.63117587,68.445984 -3.78096187,44.4053303 10.8980666,29.2454888 L11.3474246,28.7888364 L38.4551611,1.68109994 Z M52.1140981,17.0211369 C54.8994357,17.0211369 57.1573979,19.2790991 57.1573979,22.0644367 C57.1573979,24.8497743 54.8994357,27.1077365 52.1140981,27.1077365 C49.3287605,27.1077365 47.0707983,24.8497743 47.0707983,22.0644367 C47.0707983,19.2790991 49.3287605,17.0211369 52.1140981,17.0211369 Z" fill="#EE4C2C"/>
    <path d="M135.74882,63.4615227 L124.086189,63.4615227 L124.086189,93.4061153 L115.260415,93.4061153 L115.260415,8.1953622 L136.694439,8.1953622 L136.694439,8.1953622 C158.850285,8.1953622 169.575587,19.0080394 169.787878,34.2106635 L169.791094,34.6726862 C170.1063,53.6901293 156.867638,63.4615227 135.74882,63.4615227 Z M137.169899,16.7079559 L124.401395,16.7059306 L124.401395,16.7059306 L124.401395,55.896573 L136.379233,55.5813667 C137.343764,55.5624543 138.282196,55.5219819 139.194188,55.459745 L140.097355,55.3902458 L140.097355,55.3902458 L140.98282,55.3061917 L140.98282,55.3061917 L141.850507,55.2075372 C154.445845,53.6533132 161.280525,47.3733963 161.280525,35.7233737 C161.280525,23.4504951 152.632149,16.8402441 137.169899,16.7079559 L137.169899,16.7079559 Z M185.971681,31.2054176 L205.514467,82.6891032 L224.742048,31.2054176 L233.567823,31.2054176 L209.296942,93.0909091 L204.253643,106.644777 L203.870642,107.648606 L203.870642,107.648606 L203.486537,108.620393 L203.486537,108.620393 L203.101176,109.560566 L203.101176,109.560566 L202.71441,110.469555 L202.71441,110.469555 L202.326087,111.34779 C202.19637,111.635456 202.066369,111.918069 201.936059,112.195699 L201.544173,113.013711 C200.758446,114.620127 199.960679,116.04974 199.145464,117.318003 L198.736377,117.93876 C195.041058,123.405852 190.974156,125.657763 186.042831,126.102601 L185.491324,126.144663 C185.028728,126.173636 184.558565,126.187564 184.080443,126.187564 C179.919721,126.187564 176.735381,125.211181 173.453404,123.902828 L172.555091,123.538258 C172.4047,123.476286 172.253905,123.413749 172.102606,123.350708 L174.624256,115.470552 C177.461112,117.046583 180.613175,118.307408 184.080443,118.307408 L184.266429,118.306083 L184.266429,118.306083 L184.63461,118.295194 C184.695564,118.292433 184.756317,118.289187 184.816874,118.285442 L185.177921,118.256846 C185.89551,118.187155 186.586629,118.040949 187.261205,117.79093 L187.59716,117.657143 C187.820272,117.562016 188.04173,117.454849 188.261901,117.33463 L188.591238,117.144387 C189.138678,116.810581 189.679226,116.392044 190.218624,115.872981 L190.542171,115.549354 C191.404841,114.653504 192.267511,113.492218 193.153709,112.00079 L193.487183,111.425903 C193.598739,111.229031 193.710708,111.026875 193.823138,110.819307 L194.16185,110.180243 L194.16185,110.180243 L194.503595,109.507954 C194.560821,109.393095 194.618184,109.27682 194.675692,109.159113 L195.022503,108.435564 L195.022503,108.435564 L195.373038,107.676894 C195.490533,107.418066 195.608696,107.153258 195.72757,106.882344 L196.086376,106.051156 C196.146549,105.90953 196.206911,105.766345 196.267468,105.621586 L196.633202,104.73402 L196.633202,104.73402 L197.003899,103.807921 L197.003899,103.807921 L201.10158,92.7757029 L176.8307,31.2054176 L185.971681,31.2054176 Z M317.938026,29.4192489 C335.589575,29.4192489 347.882619,42.3427047 347.882619,62.2006977 C347.567412,82.0586907 334.32875,95.2973528 316.992407,95.2973528 C299.656064,95.2973528 287.047814,82.373897 287.047814,62.515904 C287.047814,42.6579109 300.286477,29.4192489 317.938026,29.4192489 Z M292.091114,8.51056844 L292.091114,16.7059306 L262.356659,16.7059306 L262.356659,93.7213216 L253.530884,93.7213216 L253.530884,16.7059306 L223.586292,16.7059306 L223.586292,8.51056844 L292.091114,8.51056844 Z M317.307613,37.2994049 C304.068951,37.2994049 295.558383,47.7012108 295.558383,62.515904 C295.558383,77.6458034 304.384158,88.0476093 317.62282,88.0476093 C330.861482,88.0476093 339.37205,77.6458034 339.37205,62.8311102 C339.37205,47.3860045 330.546275,37.2994049 317.307613,37.2994049 Z M369.001436,93.7213216 L360.490868,93.7213216 L360.490868,31.2054176 L369.001436,29.3141802 L369.001436,42.5528422 C373.099118,34.6726862 379.088036,29.3141802 387.283398,29.3141802 C391.381079,29.3141802 395.163554,30.5750051 398.315617,32.1510363 L396.109173,40.0311923 C393.272317,38.4551611 390.120254,37.1943361 386.652986,37.1943361 C380.033655,37.1943361 374.044736,42.237636 369.001436,53.2698543 L369.001436,93.7213216 Z M431.51734,95.2973528 C412.604966,95.2973528 400.942335,81.7434845 400.942335,62.515904 C400.942335,42.9731172 413.865791,29.4192489 431.51734,29.4192489 C439.08229,29.4192489 445.701621,31.3104864 451.060127,34.777755 L448.853684,42.3427047 C444.12559,39.1906423 438.136671,37.2994049 431.51734,37.2994049 C417.963472,37.2994049 409.76811,47.3860045 409.76811,62.2006977 C409.76811,77.3305972 418.593885,87.4171968 431.832547,87.4171968 C438.136671,87.4171968 444.440796,85.5259594 449.16889,82.373897 L451.060127,90.2540529 C445.386415,93.4061153 438.767084,95.2973528 431.51734,95.2973528 Z M503.174225,93.8263903 L503.174225,53.2698543 C503.174225,42.237636 498.761338,37.5095424 489.935563,37.5095424 C482.68582,37.5095424 475.751283,41.2920172 470.707983,46.3353171 L470.707983,93.7213216 L462.197414,93.7213216 L462.197414,1.89123743 L470.707983,0 L470.707983,39.5058486 L470.707983,39.5058486 C477.327314,32.8865175 485.522676,29.7344552 492.457213,29.7344552 C504.43505,29.7344552 512,37.6146111 512,51.1684794 L512,93.8263903 L503.174225,93.8263903 Z" fill="#000000"/>
  </g>
</svg>

<svg width="512" height="127" xmlns="http://www.w3.org/2000/svg" preserveAspectRatio="xMidYMid"><path d="M38.455 1.681v13.554L17.63 36.06c-10.9 11.054-10.898 28.836.003 40.091l.334.339c11.137 11.347 29.419 11.347 40.766 0 11.234-11.026 11.347-29.054.337-40.424l-.337-.343 6.935-6.934c15.13 15.13 15.13 39.4 0 54.636-14.815 15.13-39.19 15.13-54.32 0-14.98-14.979-15.129-39.02-.45-54.18l.45-.456L38.454 1.68Zm13.66 15.34a5.043 5.043 0 1 1 0 10.087 5.043 5.043 0 0 1 0-10.087Z" fill="#EE4C2C"/><path d="M135.749 63.462h-11.663v29.944h-8.826V8.196h21.434c22.156 0 32.882 10.812 33.094 26.015l.003.462c.315 19.017-12.923 28.789-34.042 28.789Zm1.42-46.754-12.768-.002v39.19l11.978-.315c.965-.019 1.903-.059 2.815-.121l.903-.07.886-.084.868-.098c12.595-1.555 19.43-7.835 19.43-19.485 0-12.273-8.649-18.883-24.111-19.015Zm48.803 14.497 19.542 51.484 19.228-51.484h8.826l-24.271 61.886-5.043 13.554-.383 1.004-.384.971-.386.94-.387.91-.388.878c-.13.287-.26.57-.39.848l-.392.818a42.473 42.473 0 0 1-2.399 4.304l-.409.62c-3.695 5.468-7.762 7.72-12.693 8.165l-.552.042a22.57 22.57 0 0 1-1.41.043c-4.161 0-7.346-.977-10.628-2.285l-.898-.365-.452-.187 2.521-7.88c2.837 1.576 5.99 2.836 9.456 2.836h.186l.369-.012.182-.01.36-.028a8.23 8.23 0 0 0 2.084-.466l.336-.134a7.63 7.63 0 0 0 .665-.322l.33-.19a9.433 9.433 0 0 0 1.627-1.272l.323-.324c.863-.895 1.726-2.057 2.612-3.548l.333-.575c.112-.197.224-.4.336-.607l.339-.639.342-.672.172-.349.347-.723.35-.76c.118-.258.236-.523.355-.794l.358-.83.181-.43.366-.888.37-.926 4.099-11.032-24.271-61.57h9.14Zm131.966-1.786c17.652 0 29.945 12.924 29.945 32.782-.316 19.858-13.554 33.096-30.89 33.096-17.337 0-29.945-12.923-29.945-32.781 0-19.858 13.238-33.097 30.89-33.097ZM292.091 8.511v8.195h-29.734V93.72h-8.826V16.706h-29.945V8.51h68.505Zm25.217 28.788c-13.239 0-21.75 10.402-21.75 25.217 0 15.13 8.826 25.532 22.065 25.532 13.238 0 21.75-10.402 21.75-25.217 0-15.445-8.827-25.532-22.065-25.532ZM369 93.721h-8.51V31.205l8.51-1.89v13.238c4.098-7.88 10.087-13.239 18.282-13.239 4.098 0 7.88 1.261 11.033 2.837l-2.207 7.88c-2.837-1.576-5.989-2.837-9.456-2.837-6.62 0-12.608 5.044-17.652 16.076V93.72Zm62.516 1.576c-18.912 0-30.575-13.554-30.575-32.781 0-19.543 12.924-33.097 30.575-33.097 7.565 0 14.185 1.891 19.543 5.359l-2.206 7.565c-4.728-3.152-10.717-5.044-17.337-5.044-13.554 0-21.749 10.087-21.749 24.902 0 15.13 8.826 25.216 22.065 25.216 6.304 0 12.608-1.891 17.336-5.043l1.891 7.88c-5.674 3.152-12.293 5.043-19.543 5.043Zm71.657-1.47V53.27c0-11.032-4.413-15.76-13.238-15.76-7.25 0-14.185 3.782-19.228 8.825v47.386h-8.51V1.891L470.707 0v39.506c6.62-6.62 14.815-9.772 21.75-9.772 11.977 0 19.542 7.88 19.542 21.434v42.658h-8.826Z"/></svg>
